icon-svg/bosch-thermostat.svg

<svg xmlns="http://www.w3.org/2000/svg" viewBox="0 0 24 24"><path fill="#44739e" d="m3.974 18.043 4.59 2.97a1.048 1.048 0 0 0 1.618-.867l-.028-4.637c-.086-2.655-1.218-3.271-2.313-3.867l-.111-.061-4.594-2.66a.768.768 0 0 0-1.135.714l.277 5.475a3.15 3.15 0 0 0 1.696 2.933m1.46-4.242c.473-.157 1.037.255 1.257.919a1.135 1.135 0 0 1-.458 1.487c-.472.156-1.036-.256-1.257-.918a1.136 1.136 0 0 1 .458-1.488m.74 2.229c.375-.125.527-.685.339-1.25s-.645-.925-1.02-.8-.527.686-.339 1.251.647.923 1.02.799m9.175-9.704-.339.191.185.08.337-.19Zm-.225-.101-.342.19.182.081.339-.191Zm-1.966.789.372-.192-.179-.081-.374.192Zm2.083-.397.189.081.335-.191-.187-.081Zm-1.482.306-.183-.081-.372.193.185.081Zm-.317-.23.179.081.365-.193-.178-.081Zm.548.331-.186-.081-.369.192.187.081Zm-.55.555.198.08.373-.193-.196-.08Zm.23-.343.191.081.366-.193-.19-.08Zm.227-.783.177.081.353-.192-.175-.081Zm1.006-.33-.343.191.178.081.342-.191Zm-.217-.101-.346.191.175.081.344-.191Zm-2.544 1.546-.401.194.191.081.399-.195Zm.236.1-.399.195.194.08.397-.194Zm-.469-.202-.403.195.188.081.401-.195Zm1.053.354.199.081.383-.194-.198-.081Zm-.739.144.197.08.395-.195-.196-.08Zm-.766-.7-.406.195.18.081.405-.195Zm.726-.606-.169-.082-.391.193.171.082Zm-.487.241-.171-.082-.401.194.173.082Zm.965-.483-.168-.082-.381.193.169.082Zm-2.263.738.171.081.411-.195-.169-.081Zm2.563-1.061-.374.193.166.082.373-.193Zm-2.358.763-.415.195.167.082.413-.195Zm2.036-1.411-.37.191.151.082.369-.191ZM10.4 6.754l-.417.195.164.082.415-.195Zm.967-.505-.156-.082-.398.193.157.082Zm-.056-.131.155.082.387-.193-.153-.082Zm2.118-.728-.152-.082-.358.191.153.082Zm-.015.464-.363.192.165.082.361-.192Zm-1.466.105.38-.193-.152-.082-.381.193Zm1.318-.276.355-.191-.154-.082-.357.191Zm-2.962.919.159.082.407-.194-.157-.082Zm3.16-.817.354-.191-.158-.081-.355.191Zm-2.567.107.393-.193-.144-.082-.394.192Zm.826-.982-.132-.083-.38.191.133.083ZM10.03 5.928l.406-.193-.14-.083-.407.194Zm1.08-.332-.142-.083-.396.193.143.083Zm-.849.035-.137-.083-.409.194.138.083Zm-.51.242-.138-.083-.419.194.14.083Zm2.406-.806.366-.19-.137-.083-.367.19Zm.196-.293-.133-.083-.369.192.134.081Zm-.783.98.384-.193-.147-.083-.385.194Zm.704-.515-.373.192.146.082.372-.191Zm-3.188.794-.429.195.142.083.428-.195Zm.305.608.155.083.421-.195-.154-.083Zm.235-.298-.424.195.151.083.423-.195Zm-.184-.103-.426.195.148.082.425-.194Zm-.179-.103-.428.195.145.083.426-.195Zm3.069-.967.365-.191-.14-.081-.365.19Zm-1.005 14.895.068-.044a.57.57 0 0 0 .232-.213 2.2 2.2 0 0 0 .293-1.218l-.074-4.299a4.24 4.24 0 0 0-2.013-3.822 37 37 0 0 0-4.566-2.66 1.46 1.46 0 0 0-1.256.071l-1.289.7a1 1 0 0 1 .537.126l4.593 2.66.108.059c1.1.6 2.354 1.28 2.444 4.08l.027 4.641a1.3 1.3 0 0 1-.195.674ZM5.661 8.945l-.053.092a.04.04 0 0 1-.055.015l-.932-.538a.04.04 0 0 1-.014-.055l.053-.092a.04.04 0 0 1 .055-.015l.932.538a.04.04 0 0 1 .014.055m3.306 1.962-.06.087a.04.04 0 0 1-.056.007l-.366-.251a.04.04 0 0 0-.046 0l-.36.26a.04.04 0 0 1-.056-.009l-.063-.086a.04.04 0 0 1 .01-.056l.281-.2a.04.04 0 0 0 0-.066l-.287-.2a.04.04 0 0 1-.01-.056l.06-.087a.04.04 0 0 1 .056-.011l.366.251a.04.04 0 0 0 .046 0l.36-.26a.04.04 0 0 1 .056.009l.063.087a.04.04 0 0 1-.01.056l-.281.2a.04.04 0 0 0 0 .067l.287.2a.04.04 0 0 1 .01.058m12.307-2.983a3.88 3.88 0 0 0-2.288-3.443c-.018-.008-2.011-.863-3.819-1.551a2 2 0 0 0-.692-.111 3.5 3.5 0 0 0-1.441.318L5.077 7.358l-.27.157a1.6 1.6 0 0 1 .531.121 37 37 0 0 1 4.599 2.67 4.41 4.41 0 0 1 2.1 3.977l.074 4.305a2.4 2.4 0 0 1-.264 1.209c.358-.214.69-.422.717-.438l6.991-5.022c.784-.636 1.018-.843 1.205-1.375a12.6 12.6 0 0 0 .3-1.941l.149-1.214Zm-4.24-1-4.188 2.523a.8.8 0 0 1-.787.021L7.26 6.926a.188.188 0 0 1 0-.331l4.559-2.471a.58.58 0 0 1 .528-.013l4.66 2.243a.323.323 0 0 1 .027.568Zm3.326-1.585.456-.246a3.8 3.8 0 0 0-.7-.599l-.448.241a4.5 4.5 0 0 1 .692.604m.928 4.784a2.5 2.5 0 0 0 .475-.764l-.428.228-.009.233Zm-.233-3.792.427-.283a4.5 4.5 0 0 0-.61-.893l-.455.246a5 5 0 0 1 .334.421 4 4 0 0 1 .304.509m.752 2.913a3.4 3.4 0 0 0 .179-.857l-.619.365-.029.741Zm-2.931-5.242a3 3 0 0 0-.318-.022 2 2 0 0 0-.359.03l.356.149Zm.723.682.444-.239a3 3 0 0 0-.34-.189 3 3 0 0 0-.686-.228l-.361.176.383.163a4 4 0 0 1 .56.317m1.8 3.248-.028.724.623-.367a4 4 0 0 0-.076-1.021l-.515.292a2.4 2.4 0 0 1-.004.372m.5-.747a4.6 4.6 0 0 0-.377-1.06l-.429.285a3.3 3.3 0 0 1 .3 1.065Z"/></svg>

<?xml version="1.0" encoding="UTF-8"?>
<svg width="24px" fill="#44739e" height="24px" viewBox="0 0 24 24" version="1.1" xmlns="http://www.w3.org/2000/svg" xmlns:xlink="http://www.w3.org/1999/xlink">
            <path d="m 3.973,18.043 4.591,2.97 a 1.048,1.048 0 0 0 1.618,-0.867 L 10.154,15.508 C 10.068,12.853 8.936,12.237 7.841,11.641 L 7.729,11.58 3.135,8.92 A 0.768,0.768 0 0 0 2,9.634 l 0.277,5.475 a 3.149,3.149 0 0 0 1.696,2.934 z M 5.433,13.8 C 5.906,13.643 6.47,14.055 6.69,14.719 A 1.135,1.135 0 0 1 6.232,16.207 C 5.76,16.363 5.196,15.951 4.975,15.288 A 1.136,1.136 0 0 1 5.433,13.8 Z m 0.74,2.23 C 6.548,15.905 6.7,15.344 6.512,14.779 6.324,14.214 5.867,13.854 5.492,13.979 5.117,14.104 4.965,14.665 5.153,15.23 c 0.188,0.565 0.647,0.924 1.02,0.8 z m 9.176,-9.705 -0.339,0.191 0.185,0.08 0.337,-0.19 z m -0.225,-0.101 -0.342,0.19 0.182,0.081 0.339,-0.191 z M 13.158,7.013 13.53,6.821 13.351,6.74 12.977,6.932 Z M 15.241,6.616 15.43,6.697 15.765,6.506 15.578,6.425 Z M 13.759,6.922 13.576,6.841 13.204,7.034 13.389,7.115 Z M 13.442,6.692 13.621,6.773 13.986,6.58 13.808,6.499 Z m 0.548,0.331 -0.186,-0.081 -0.369,0.192 0.187,0.081 z m -0.55,0.555 0.198,0.08 0.373,-0.193 -0.196,-0.08 z m 0.23,-0.343 0.191,0.081 0.366,-0.193 -0.19,-0.08 z M 13.897,6.452 14.074,6.533 14.427,6.341 14.252,6.26 Z M 14.903,6.122 14.56,6.313 14.738,6.394 15.08,6.203 Z M 14.686,6.021 14.34,6.212 14.515,6.293 14.859,6.102 Z m -2.544,1.546 -0.401,0.194 0.191,0.081 0.399,-0.195 z m 0.236,0.1 -0.399,0.195 0.194,0.08 0.397,-0.194 z M 11.909,7.465 11.506,7.66 11.694,7.741 12.095,7.546 Z M 12.962,7.819 13.161,7.9 13.544,7.706 13.346,7.625 Z m -0.739,0.144 0.197,0.08 0.395,-0.195 -0.196,-0.08 z m -0.766,-0.7 -0.406,0.195 0.18,0.081 0.405,-0.195 z M 12.183,6.657 12.014,6.575 11.623,6.768 11.794,6.85 Z M 11.696,6.898 11.525,6.816 11.124,7.01 11.297,7.092 Z M 12.661,6.415 12.493,6.333 12.112,6.526 12.281,6.608 Z M 10.398,7.153 10.569,7.234 10.98,7.039 10.811,6.958 Z m 2.563,-1.061 -0.374,0.193 0.166,0.082 0.373,-0.193 z m -2.358,0.763 -0.415,0.195 0.167,0.082 0.413,-0.195 z m 2.036,-1.411 -0.37,0.191 0.151,0.082 0.369,-0.191 z M 10.4,6.753 9.983,6.948 10.147,7.03 10.562,6.835 Z M 11.367,6.248 11.211,6.166 10.813,6.359 10.97,6.441 Z M 11.311,6.117 11.466,6.199 11.853,6.006 11.7,5.924 Z M 13.429,5.389 13.277,5.307 12.919,5.498 13.072,5.58 Z m -0.015,0.464 -0.363,0.192 0.165,0.082 0.361,-0.192 z M 11.948,5.958 12.328,5.765 12.176,5.683 11.795,5.876 Z M 13.266,5.682 13.621,5.491 13.467,5.409 13.11,5.6 Z M 10.304,6.601 10.463,6.683 10.87,6.489 10.713,6.407 Z M 13.464,5.784 13.818,5.593 13.66,5.512 13.305,5.703 Z M 10.897,5.891 11.29,5.698 11.146,5.616 10.752,5.808 Z M 11.723,4.908 11.591,4.825 11.211,5.017 11.344,5.1 Z M 10.03,5.927 10.436,5.734 10.296,5.651 9.889,5.845 Z M 11.11,5.595 10.968,5.512 10.572,5.705 10.715,5.788 Z M 10.261,5.63 10.124,5.547 9.715,5.741 9.853,5.824 Z M 9.751,5.872 9.613,5.789 9.194,5.983 9.334,6.066 Z M 12.157,5.066 12.523,4.875 12.386,4.792 12.019,4.983 Z M 12.353,4.772 12.22,4.689 11.851,4.881 11.985,4.963 Z M 11.57,5.753 11.954,5.56 11.807,5.477 11.422,5.671 Z M 12.274,5.238 11.901,5.43 12.047,5.512 12.419,5.321 Z M 9.086,6.032 8.657,6.227 8.799,6.31 9.227,6.115 Z M 9.391,6.64 9.546,6.723 9.967,6.528 9.813,6.445 Z M 9.626,6.342 9.202,6.537 9.353,6.62 9.776,6.425 Z M 9.442,6.239 9.016,6.434 9.164,6.516 9.589,6.322 Z M 9.263,6.136 8.835,6.331 8.98,6.414 9.406,6.219 Z m 3.069,-0.967 0.365,-0.191 -0.14,-0.082 -0.365,0.191 z m -1.005,14.896 0.068,-0.044 a 0.567,0.567 0 0 0 0.232,-0.213 2.219,2.219 0 0 0 0.293,-1.218 l -0.074,-4.3 A 4.238,4.238 0 0 0 9.833,10.468 v 0 A 37.161,37.161 0 0 0 5.266,7.808 1.462,1.462 0 0 0 4.01,7.879 l -1.289,0.7 a 1.011,1.011 0 0 1 0.537,0.126 l 4.594,2.66 0.108,0.059 c 1.1,0.6 2.354,1.28 2.444,4.08 v 0 l 0.027,4.642 A 1.294,1.294 0 0 1 10.236,20.82 Z M 5.66,8.944 5.607,9.036 A 0.041,0.041 0 0 1 5.552,9.051 L 4.62,8.513 A 0.04,0.04 0 0 1 4.606,8.458 L 4.659,8.366 A 0.04,0.04 0 0 1 4.714,8.351 L 5.646,8.889 A 0.04,0.04 0 0 1 5.66,8.944 Z m 3.307,1.962 -0.06,0.087 A 0.04,0.04 0 0 1 8.851,11 L 8.485,10.749 a 0.039,0.039 0 0 0 -0.046,0 l -0.36,0.26 A 0.039,0.039 0 0 1 8.023,11 L 7.96,10.914 a 0.039,0.039 0 0 1 0.01,-0.056 l 0.281,-0.2 a 0.04,0.04 0 0 0 0,-0.066 l -0.287,-0.2 a 0.04,0.04 0 0 1 -0.01,-0.056 l 0.06,-0.087 A 0.04,0.04 0 0 1 8.07,10.238 l 0.366,0.251 a 0.039,0.039 0 0 0 0.046,0 l 0.36,-0.26 a 0.04,0.04 0 0 1 0.056,0.009 l 0.063,0.087 a 0.039,0.039 0 0 1 -0.01,0.056 l -0.281,0.2 a 0.041,0.041 0 0 0 0,0.067 l 0.287,0.2 a 0.041,0.041 0 0 1 0.01,0.058 z M 21.275,7.923 A 3.878,3.878 0 0 0 18.987,4.479 C 18.969,4.471 16.975,3.616 15.167,2.928 A 1.966,1.966 0 0 0 14.475,2.817 3.538,3.538 0 0 0 13.034,3.135 L 5.076,7.357 4.806,7.514 a 1.64,1.64 0 0 1 0.531,0.121 37.29,37.29 0 0 1 4.6,2.67 4.407,4.407 0 0 1 2.1,3.977 l 0.074,4.306 a 2.374,2.374 0 0 1 -0.264,1.209 c 0.358,-0.214 0.69,-0.422 0.717,-0.438 l 6.992,-5.023 c 0.784,-0.636 1.018,-0.843 1.205,-1.375 a 12.629,12.629 0 0 0 0.3,-1.941 c 0.042,-0.341 0.09,-0.741 0.149,-1.214 z m -4.241,-1 -4.188,2.523 a 0.8,0.8 0 0 1 -0.787,0.021 l -4.8,-2.542 a 0.188,0.188 0 0 1 0,-0.331 l 4.56,-2.472 a 0.582,0.582 0 0 1 0.528,-0.013 l 4.66,2.244 a 0.323,0.323 0 0 1 0.027,0.568 z m 3.327,-1.585 0.456,-0.246 a 3.842,3.842 0 0 0 -0.7,-0.6 l -0.448,0.241 a 4.505,4.505 0 0 1 0.692,0.605 z m 0.928,4.784 A 2.5,2.5 0 0 0 21.764,9.358 L 21.336,9.586 21.327,9.819 Z M 21.056,6.33 21.483,6.047 A 4.5,4.5 0 0 0 20.873,5.154 L 20.418,5.4 a 4.469,4.469 0 0 1 0.334,0.421 3.951,3.951 0 0 1 0.304,0.509 z m 0.752,2.913 A 3.352,3.352 0 0 0 21.987,8.386 L 21.368,8.751 21.339,9.492 Z M 18.877,4 a 2.452,2.452 0 0 0 -0.318,-0.022 2.151,2.151 0 0 0 -0.36,0.03 l 0.357,0.149 z M 19.6,4.682 20.044,4.443 A 3.442,3.442 0 0 0 19.704,4.254 2.908,2.908 0 0 0 19.018,4.026 l -0.361,0.176 0.383,0.163 a 3.736,3.736 0 0 1 0.56,0.317 z m 1.8,3.249 -0.028,0.724 0.623,-0.367 A 4.025,4.025 0 0 0 21.919,7.267 L 21.404,7.559 A 2.426,2.426 0 0 1 21.4,7.931 Z m 0.5,-0.747 a 4.617,4.617 0 0 0 -0.377,-1.06 v 0 l -0.429,0.285 a 3.246,3.246 0 0 1 0.3,1.065 z"/>

</svg>
